X: 3001
T: Battery, The
R: reel
M: 4/4
K: Edorian
|:gf|eBGF EGFE|Fddc d2dB|e2eg fBBc|dBcA Bcdf|
eBAB GBAF|Beef e2ga|bgaf eBGF|Beed e2:|
|:ef|~g2fg eBfg|eBBA Bcdf|~g2fg efga|b2ab gafa|
g2fg eBBA|Bcdf e2ef|gfga bfgf|eBfg e2:|

